www/assets/icons/exposure_plus_2.svg

<svg xmlns="http://www.w3.org/2000/svg" width="24" height="24" viewBox="0 0 24 24" fill='currentColor'><path d="m16.05 16.79 2.86-3.07c.38-.39.72-.79 1.04-1.18s.59-.78.82-1.17q.345-.585.54-1.17c.13-.39.19-.79.19-1.18 0-.53-.09-1.02-.27-1.46q-.27-.66-.78-1.11c-.34-.31-.77-.54-1.26-.71a5.7 5.7 0 0 0-1.72-.24c-.69 0-1.31.11-1.85.32s-1 .51-1.36.88c-.37.37-.65.8-.84 1.3-.18.47-.27.97-.28 1.5h2.14c.01-.31.05-.6.13-.87.09-.29.23-.54.4-.75.18-.21.41-.37.68-.49s.6-.18.96-.18q.465 0 .81.15c.23.1.43.25.59.43s.28.4.37.65c.08.25.13.52.13.81 0 .22-.03.43-.08.65-.06.22-.15.45-.29.7s-.32.53-.56.83c-.23.3-.52.65-.88 1.03l-4.17 4.55v1.49H22v-1.71zM8 7.5H6v4H2v2h4v4h2v-4h4v-2H8z"/></svg>

<svg width="24" height="24" viewBox="0 0 24 24" xmlns="http://www.w3.org/2000/svg" fill='currentColor'><path d="M16.05 16.79L18.91 13.72C19.29 13.33 19.63 12.93 19.95 12.54C20.27 12.15 20.54 11.76 20.77 11.37C21 10.98 21.18 10.59 21.31 10.2C21.44 9.81 21.5 9.41 21.5 9.02C21.5 8.49 21.41 8 21.23 7.56C21.05 7.12 20.79 6.75 20.45 6.45C20.11 6.14 19.68 5.91 19.19 5.74C18.68 5.58 18.11 5.5 17.47 5.5C16.78 5.5 16.16 5.61 15.62 5.82C15.08 6.03 14.62 6.33 14.26 6.7C13.89 7.07 13.61 7.5 13.42 8C13.24 8.47 13.15 8.97 13.14 9.5H15.28C15.29 9.19 15.33 8.9 15.41 8.63C15.5 8.34 15.64 8.09 15.81 7.88C15.99 7.67 16.22 7.51 16.49 7.39C16.76 7.27 17.09 7.21 17.45 7.21C17.76 7.21 18.03 7.26 18.26 7.36C18.49 7.46 18.69 7.61 18.85 7.79C19.01 7.97 19.13 8.19 19.22 8.44C19.3 8.69 19.35 8.96 19.35 9.25C19.35 9.47 19.32 9.68 19.27 9.9C19.21 10.12 19.12 10.35 18.98 10.6C18.84 10.85 18.66 11.13 18.42 11.43C18.19 11.73 17.9 12.08 17.54 12.46L13.37 17.01V18.5H22V16.79H16.05ZM8 7.5H6V11.5H2V13.5H6V17.5H8V13.5H12V11.5H8V7.5Z"/></svg>
